source/asset/images/icons/icon-person.svg

<svg width="24" height="24" viewBox="0 0 24 24" fill="none" xmlns="http://www.w3.org/2000/svg">
<path fill-rule="evenodd" clip-rule="evenodd" d="M9.25023 9.40069C9.25023 7.92539 10.4695 6.70837 11.9998 6.70837C13.5301 6.70837 14.7494 7.92539 14.7494 9.40069C14.7494 10.876 13.5301 12.093 11.9998 12.093C10.4695 12.093 9.25023 10.876 9.25023 9.40069ZM11.9998 5.20837C9.66456 5.20837 7.75023 7.07371 7.75023 9.40069C7.75023 11.7277 9.66456 13.593 11.9998 13.593C14.3351 13.593 16.2494 11.7277 16.2494 9.40069C16.2494 7.07371 14.3351 5.20837 11.9998 5.20837ZM8.375 18.6657C8.375 17.1787 9.58039 15.9734 11.0673 15.9734H12.9317C14.4186 15.9734 15.624 17.1787 15.624 18.6657H17.124C17.124 16.3503 15.247 14.4734 12.9317 14.4734H11.0673C8.75196 14.4734 6.875 16.3503 6.875 18.6657H8.375Z" fill="#D0BC7A"/>
</svg>

<svg width="24" height="24" viewBox="0 0 24 24" fill="none" xmlns="http://www.w3.org/2000/svg"><path fill-rule="evenodd" clip-rule="evenodd" d="M9.25 9.4c0-1.475 1.22-2.692 2.75-2.692s2.75 1.217 2.75 2.693c0 1.475-1.22 2.692-2.75 2.692s-2.75-1.217-2.75-2.692zM12 5.209c-2.335 0-4.25 1.866-4.25 4.193 0 2.327 1.915 4.192 4.25 4.192s4.25-1.865 4.25-4.192S14.334 5.208 12 5.208zM8.375 18.666a2.692 2.692 0 012.692-2.693h1.865a2.692 2.692 0 012.692 2.693h1.5a4.192 4.192 0 00-4.192-4.193h-1.865a4.192 4.192 0 00-4.192 4.193h1.5z" fill="#D0BC7A"/></svg>
